!!!!SEGMENT: pl-sa--l-1643--108_anonim--magnificat-na-boze-narodzenie.krn
!!!cenid: 16xx:1466
!!!COM: Anonim
!!!COM-rismID: pe30004985
!!!CDT:
!!!CNT:
!!!OTL: Magnificat na Boże Narodzenie
!!!PDT:
!!!AGN: Sacred
!!!SMS-siglum: PL-SA
!!!SMS-shelfmark: L 1643
!!!SMS-shelfwork: 108 W
!!!SMS-variant:
!!!SMS-altvar:
!!!NIFC-rismSourceID: 1001064619
!!!NIFC-rismChildID: 1001064619
!!!NIFC-islandoraID:
!!!URL-pdf-islandora:
!!!URL-scan:
!!!ONB-nifc: UWAGA: 8 ksiąg. Primi chori: 1mus Cantus (x), C 2dus (139-142), C 3tius (x), Bassus (x); Secondi chori: Primus Cantus (x), C 2dus (x), Altus (x), Bassus (115-116). UWAGA: Nie dodawać pustych linii, chyba że w rękopisie pojawiają się dodatkowe oznaczenia dotyczące pełnej obsady (a 4, a 8 itp.)
!!!AIN: 4 empty
!!!key:
**kern	**text	**kern	**kern	**text	**kern
*part4	*part4	*part3	*part2	*part2	*part1
*staff4	*staff4	*staff3	*staff2	*staff2	*staff1
*Iempty	*	*Iempty	*Iempty	*	*Iempty
*I"Baſsus 2di Chori	*	*I"Altus secundi Chori.	*I"Cantus 2dus Primi Chori.	*	*I"1m(us) Cantus Primi Chori
*I'Coro 2 B	*	*I'Coro 2 A	*I'Coro 1 S 2	*	*I'Coro 1 S 1
*clefC4	*	*clefC2	*clefC1	*	*clefG2
*k[b-]	*	*k[b-]	*k[b-]	*	*k[b-]
*F:	*	*F:	*F:	*	*F:
*M3/1	*	*M3/1	*M3/1	*	*M3/1
=1-	=1-	=1-	=1-	=1-	=1-
!!LO:TX:t=P:problem:zgodnie z RISM "two parts missing" - przyjęto dwa górne głosy Coro 1, dwa dolne Coro 2
!!LO:TX:t=P:problem:w źródle metrum trójdzielne zapisane jako 3/2, ale ze względu na podział nut w taktach transkrybujemy jako 3/1:global
!	!	!	!LO:TX:a:Bi:t=Magnificat\nna Boze na\nrodzenie na 4 gło	!	!
!LO:TX:a:Bi:t=Magnificat na Boze narodzenie na 4 głoſȳ	!	!	!	!	!
1F	Et	0.ryy	1a	Et	0.ryy
1F	e-	.	1a	e-	.
1B-	-xul-	.	1b-	-xul-	.
=2-	=2-	=2-	=2-	=2-	=2-
0F	-ta-	0.ryy	0a	-ta-	0.ryy
!LO:TX:t=P:problem=kreska pseudotaktowa	!	!	!	!	!
!	!	!	!LO:TX:t=P:global:problem=kreska oddechu na różnych liniach [rozdzielacz słów / znak oddechu]	!	!
1F	-uit	.	1a,<	-uit	.
=3	=3	=3-	=3-	=3-	=3-
1F	et	0.ryy	1a	et	0.ryy
1F	e-	.	1a	e-	.
!	!	!	!LO:TX:b:Bi:t=cicho	!	!
1B-	-xul-	.	1b-	-xul-	.
=4-	=4-	=4-	=4-	=4-	=4-
0F	-ta-	0.ryy	0a	-ta-	0.ryy
!LO:TX:t=P:problem=kreska pseudotaktowa	!	!	!	!	!
1F	-uit	.	1a,<	-uit	.
=5	=5	=5-	=5-	=5-	=5-
1.F	Spi-	0.ryy	1.a	spi-	0.ryy
2F/	-ri-	.	2a\	-ri-	.
!	!	!	!LO:TX:b:Bi:t=mocno	!	!
1D	-tus	.	1a	-tus	.
=6-	=6-	=6-	=6-	=6-	=6-
0G	me-	0.ryy	0b-	me-	0.ryy
!LO:TX:t=P:problem=kreska pseudotaktowa	!	!	!	!	!
1C	-us	.	1cc,<	-us	.
=7	=7	=7-	=7-	=7-	=7-
1.c	Spi-	0.ryy	1.g	spi-	0.ryy
!	!	!	!LO:TX:b:Bi:t=cicho	!	!
2c\	-ri-	.	2g/	-ri-	.
1F	-tus	.	1a	-tus	.
=8-	=8-	=8-	=8-	=8-	=8-
0G	me-	0.ryy	0b-	me-	0.ryy
*custos:F	*	*	*custos:a	*	*
1c	-us	.	1cc	-us	.
!LO:LB:g=original	!	!	!	!	!
!	!	!	!LO:LB:g=original	!	!
=9-	=9-	=9-	=9-	=9-	=9-
!	!	!	!LO:TX:t=P:problem=wykreślone nuty [5]	!	!
1F	in	0.ryy	1a	in	0.ryy
!	!	!	!LO:TX:b:Bi:t=mocno	!	!
1F	De-	.	1a	de-	.
1G	-o	.	1b-	-o	.
=10-	=10-	=10-	=10-	=10-	=10-
!LO:TX:a:Bi:t=mocno	!	!	!	!	!
0A	ſa-	0.ryy	0cc	sa-	0.ryy
1A	-lu-	.	1g	-lu-	.
=11-	=11-	=11-	=11-	=11-	=11-
0B-	-ra-	0.ryy	0b-	-ra-	0.ryy
1F	-ti	.	1cc	-ti	.
=12-	=12-	=12-	=12-	=12-	=12-
0c	me-	0.ryy	0cc	me-	0.ryy
!LO:TX:t=P:problem=kreska pseudotaktowa	!	!	!	!	!
1c	-o	.	1cc,<	-o	.
=13	=13	=13-	=13-	=13-	=13-
0A	Sa-	0.ryy	0cc	sa-	0.ryy
1A	-lu-	.	1g	-lu-	.
=14-	=14-	=14-	=14-	=14-	=14-
!	!	!	!LO:TX:b:Bi:t=ciho	!	!
0B-	-ta-	0.ryy	0b-	-ta-	0.ryy
!LO:TX:a:Bi:t=cicho	!	!	!	!	!
1F	-ri	.	1cc	-ri	.
=15-	=15-	=15-	=15-	=15-	=15-
0c	me-	0.ryy	0cc	me-	0.ryy
!LO:TX:t=P:problem=kreska pseudotaktowa	!	!	!	!	!
1c	-o	.	1cc	-o	.
=16	=16	=16-	=16-	=16-	=16-
1F	Sa-	0.ryy	0.r	.	0.ryy
!LO:TX:a:Bi:t=mocno	!	!	!	!	!
1F	-lu-	.	.	.	.
1F	-ta-	.	.	.	.
=17-	=17-	=17-	=17-	=17-	=17-
0B-	-ri	0.ryy	0.r	.	0.ryy
1F	sa-	.	.	.	.
=18-	=18-	=18-	=18-	=18-	=18-
*	*	*	*custos:dd	*	*
!	!	!	!LO:SIC:v:l:t=custos lu	!	!
!	!	!	!LO:TX:b:Bi:t=mocno	!	!
0c	-lu-	0.ryy	0cc	sa-	0.ryy
!	!	!	!LO:PB:g=original	!	!
!LO:TX:a:Bi:t=cicho	!	!	!	!	!
1G	-ta-	.	1dd	-lu-	.
=19-	=19-	=19-	=19-	=19-	=19-
1A	-ri	0.ryy	1cc	-ta-	0.ryy
1B-	.	.	1b-	-ri	.
*custos:F	*	*	*	*	*
1c	me-	.	1g	me-	.
!LO:LB:g=original	!	!	!	!	!
=20-	=20-	=20-	=20-	=20-	=20-
0F	-o	0.ryy	0.a,<	-o	0.ryy
1F	Sa-	.	.	.	.
=21-	=21-	=21-	=21-	=21-	=21-
0c	-lu-	0.ryy	0cc	sa-	0.ryy
1G	-ta-	.	1dd	-lu-	.
=22-	=22-	=22-	=22-	=22-	=22-
1A	-ri	0.ryy	1cc	-ta-	0.ryy
*lig	*	*	*	*	*
1B-	me-	.	1b-	-ri	.
1c	.	.	1g	me-	.
*Xlig	*	*	*	*	*
=23-	=23-	=23-	=23-	=23-	=23-
!LO:TX:t=P:problem=kreska pseudotaktowa	!	!	!	!	!
0.F	-o	0.ryy	0.a	-o	0.ryy
=24	=24	=24-	=24-	=24-	=24-
0F	E-	0.ryy	1cc	e-	0.ryy
.	.	.	1a	-ia	.
1F	-ia	.	1cc	e-	.
=25-	=25-	=25-	=25-	=25-	=25-
0F	E-	0.ryy	1a	-ia	0.ryy
.	.	.	0cc	e-	.
1F	-ia	.	.	.	.
=26-	=26-	=26-	=26-	=26-	=26-
00.r	.	0.ryy	0a	-ia	0.ryy
.	.	.	1r	.	.
=27-	=27-	=27-	=27-	=27-	=27-
.	.	0.ryy	1.f	vir-	0.ryy
.	.	.	2e/	.	.
.	.	.	1d	-go	.
=28-	=28-	=28-	=28-	=28-	=28-
0.r	.	0.ryy	0f	de-	0.ryy
*	*	*	*custos:f	*	*
.	.	.	1e	-um	.
!	!	!	!LO:LB:g=original	!	!
=29-	=29-	=29-	=29-	=29-	=29-
0F	Vir-	0.ryy	1.f	ge-	0.ryy
.	.	.	2f/	-nu-	.
1c	-go	.	1g	-it	.
=30-	=30-	=30-	=30-	=30-	=30-
0B-	De-	0.ryy	0b-	de-	0.ryy
1F	-um	.	1a	-um	.
=31-	=31-	=31-	=31-	=31-	=31-
1.c	ge-	0.ryy	1.g	ge-	0.ryy
2c\	-nu-	.	2g/	-nu-	.
1F	-it	.	1a	-it	.
=32-	=32-	=32-	=32-	=32-	=32-
0F	E-	0.ryy	0.r	.	0.ryy
1F	-ia	.	.	.	.
=33-	=33-	=33-	=33-	=33-	=33-
1F	E-	0.ryy	1cc	e-	0.ryy
*custos:c	*	*	*	*	*
1F	-ia	.	1a	-ia	.
!LO:LB:g=original	!	!	!	!	!
1c	E-	.	1cc	e-	.
=34-	=34-	=34-	=34-	=34-	=34-
!LO:N:vis=0	!	!	!	!	!
0.F	-ia	0.ryy	0.al;;	-ia;	0.ryy
=35||	=35||	=35	=35	=35	=35
0F	Qui-	0.ryy	1.a	Qui-	0.ryy
.	.	.	2b-\	.	.
1E	-a	.	1cc	-a	.
=36-	=36-	=36-	=36-	=36-	=36-
0F	fe-	0.ryy	0a	fe-	0.ryy
1c	-cit	.	1g	-cit	.
=37-	=37-	=37-	=37-	=37-	=37-
1B-	mi-	0.ryy	0dd	mi-	0.ryy
0c	-hi	.	.	.	.
.	.	.	1cc	-hi	.
=38-	=38-	=38-	=38-	=38-	=38-
0G	ma-	0.ryy	0b-	ma-	0.ryy
*	*	*	*custos:a	*	*
1A	-gna	.	1cc	-gna	.
!	!	!	!LO:LB:g=original	!	!
=39-	=39-	=39-	=39-	=39-	=39-
0F	mi-	0.ryy	1.a	mi-	0.ryy
.	.	.	2b-\	.	.
1c	-hi	.	1cc	-hi	.
=40-	=40-	=40-	=40-	=40-	=40-
!	!	!	!LO:TX:a:t=P:problem=w źródle krzyżyk w roli kasownika	!	!
!	!	!	!LO:TX:b:t=P:problem=# below	!	!
!	!	!	!LO:N:acc=#	!	!
0G	ma-	0.ryy	0bn	ma-	0.ryy
1c	-gna	.	1cc	-gna	.
=41-	=41-	=41-	=41-	=41-	=41-
1c	qui	0.ryy	1cc	qui	0.ryy
1F	po-	.	1dd	po-	.
1G	-tens	.	1dd	-tens	.
=42-	=42-	=42-	=42-	=42-	=42-
0.c	eſt	0.ryy	0.cc	eſt,	0.ryy
=43-	=43-	=43-	=43-	=43-	=43-
00.r	.	0.ryy	0.r	.	0.ryy
=44-	=44-	=44-	=44-	=44-	=44-
.	.	0.ryy	1f	et	0.ryy
.	.	.	1f	san-	.
.	.	.	1g	-ctum	.
=45-	=45-	=45-	=45-	=45-	=45-
*custos:F	*	*	*	*	*
0.r	.	0.ryy	0a	no-	0.ryy
.	.	.	1b-y	-men	.
!LO:LB:g=original	!	!	!	!	!
=46-	=46-	=46-	=46-	=46-	=46-
1F	et	0.ryy	0a	e-	0.ryy
!LO:TX:t=P:global:problem=kreska oddechu na różnych liniach [rozdzielacz słów / znak oddechu]	!	!	!	!	!
1F,<	ſan-	.	.	.	.
!	!	!	!LO:TX:t=P:problem=niejednoznaczny zapis wysokości [1e / 1f]	!	!
1G	-ctum	.	1eyy	-ius	.
=47-	=47-	=47-	=47-	=47-	=47-
0A	no-	0.ryy	1r	.	0.ryy
.	.	.	1r	.	.
1B-	-men	.	1dd	no-	.
=48-	=48-	=48-	=48-	=48-	=48-
0c	e-	0.ryy	1cc	-men	0.ryy
.	.	.	0cc	e-	.
1F	-ius	.	.	.	.
=49-	=49-	=49-	=49-	=49-	=49-
*	*	*	*custos:cc	*	*
0F	E-	0.ryy	0.a	-ius	0.ryy
1F	-ia	.	.	.	.
!	!	!	!LO:LB:g=original	!	!
=50-	=50-	=50-	=50-	=50-	=50-
0F	E-	0.ryy	1cc	e-	0.ryy
.	.	.	0a	-ia	.
1F	-ia	.	.	.	.
=51-	=51-	=51-	=51-	=51-	=51-
0.r	.	0.ryy	0.r	.	0.ryy
=52-	=52-	=52-	=52-	=52-	=52-
0F	Vir-	0.ryy	1.f	vir-	0.ryy
.	.	.	2e/	.	.
1B-	-go	.	1d	-go	.
=53-	=53-	=53-	=53-	=53-	=53-
0F	De-	0.ryy	0f	de-	0.ryy
1c	-um	.	1e	-um	.
=54-	=54-	=54-	=54-	=54-	=54-
1.A	ge-	0.ryy	1.f	ge-	0.ryy
2F/	-nu-	.	2f/	-nu-	.
1c	-it	.	1e	-it	.
=55-	=55-	=55-	=55-	=55-	=55-
1F	E-	0.ryy	0.r	.	0.ryy
1F	-ia	.	.	.	.
1A	E-	.	.	.	.
=56-	=56-	=56-	=56-	=56-	=56-
*custos:c	*	*	*	*	*
1F	-ia	0.ryy	1cc	e-	0.ryy
!LO:LB:g=original	!	!	!	!	!
0c	E-	.	1a	-ia	.
.	.	.	1cc	e-	.
=57-	=57-	=57-	=57-	=57-	=57-
0.Fl;;	-ia	0.ryy	0.al;;	-ia;	0.ryy
=58||	=58||	=58	=58	=58	=58
00.r	.	0.ryy	00.r	.	0.ryy
=59-	=59-	=59-	=59-	=59-	=59-
.	.	0.ryy	.	.	0.ryy
=60-	=60-	=60-	=60-	=60-	=60-
1r	.	0.ryy	1r	.	0.ryy
1r	.	.	1r	.	.
1F	In	.	1a	In	.
=61-	=61-	=61-	=61-	=61-	=61-
1.c	bra-	0.ryy	1.cc	bra-	0.ryy
2B-\	-chi-	.	2cc\	-hi-	.
1A	-o	.	1cc	-o	.
=62-	=62-	=62-	=62-	=62-	=62-
*	*	*	*custos:cc	*	*
1.G	su-	0.ryy	0.dd	su-	0.ryy
2F/	.	.	.	.	.
1G	.	.	.	.	.
!	!	!	!LO:LB:g=original	!	!
=63-	=63-	=63-	=63-	=63-	=63-
0c	-o	0.ryy	0.cc	-o	0.ryy
1c	di-	.	.	.	.
=64-	=64-	=64-	=64-	=64-	=64-
2c\	-ſper-	0.ryy	0.r	.	0.ryy
2B-\	.	.	.	.	.
2A\	.	.	.	.	.
2G/	.	.	.	.	.
1F	-sit	.	.	.	.
=65-	=65-	=65-	=65-	=65-	=65-
1F	di-	0.ryy	1a	di-	0.ryy
1F	-ſper-	.	1cc	-sper-	.
1F	-sit	.	1f	-sit	.
=66-	=66-	=66-	=66-	=66-	=66-
*custos:A	*	*	*	*	*
1F	ſu-	0.ryy	1a	di-	0.ryy
!LO:PB:g=original	!	!	!	!	!
1A	-per-	.	1cc	-sper-	.
1F	-bos	.	1f	-sit	.
=67-	=67-	=67-	=67-	=67-	=67-
1F	di-	0.ryy	1a	di-	0.ryy
1F	-ſper-	.	1a	-sper-	.
1F	-sit	.	1a	-sit	.
=68-	=68-	=68-	=68-	=68-	=68-
1B-	su-	0.ryy	1b-	su-	0.ryy
1F	-per-	.	1a	-per-	.
1F	-bos	.	1a	-bos	.
=69-	=69-	=69-	=69-	=69-	=69-
0G	men-	0.ryy	0g	men-	0.ryy
1G	-te	.	1g	-te	.
=70-	=70-	=70-	=70-	=70-	=70-
1A	cor-	0.ryy	1f	cor-	0.ryy
1B-	-dis	.	1f	-dis	.
1c	su-	.	1e	ſu-	.
=71-	=71-	=71-	=71-	=71-	=71-
0F	-i	0.ryy	0.f	-i,	0.ryy
1F	E-	.	.	.	.
=72-	=72-	=72-	=72-	=72-	=72-
0F	-ia	0.ryy	0cc	e-	0.ryy
*	*	*	*custos:cc	*	*
1F	E-	.	1a	-ia	.
!	!	!	!LO:LB:g=original	!	!
=73-	=73-	=73-	=73-	=73-	=73-
0.F	-ia	0.ryy	1cc	e-	0.ryy
.	.	.	1a	-ia	.
.	.	.	1r	.	.
=74-	=74-	=74-	=74-	=74-	=74-
0.r	.	0.ryy	0.r	.	0.ryy
=75-	=75-	=75-	=75-	=75-	=75-
0F	Vir-	0.ryy	1.f	vir-	0.ryy
.	.	.	2e/	.	.
1B-	-go	.	1d	-go	.
=76-	=76-	=76-	=76-	=76-	=76-
0F	De-	0.ryy	0f	de-	0.ryy
*custos:A	*	*	*	*	*
1c	-um	.	1e	-um	.
!LO:LB:g=original	!	!	!	!	!
=77-	=77-	=77-	=77-	=77-	=77-
1.A	ge-	0.ryy	1.f	ge-	0.ryy
2F/	-nu-	.	2f/	-nu-	.
1c	-it	.	1e	-it	.
=78-	=78-	=78-	=78-	=78-	=78-
1F	E-	0.ryy	0.r	.	0.ryy
1F	-ia	.	.	.	.
1A	E-	.	.	.	.
=79-	=79-	=79-	=79-	=79-	=79-
1F	-ia	0.ryy	1cc	e-	0.ryy
0c	E-	.	1a	-ia	.
.	.	.	1cc	e-	.
=80-	=80-	=80-	=80-	=80-	=80-
0.Fl;;	-ia	0.ryy	0.al;;	-ia;	0.ryy
=81||	=81||	=81	=81	=81	=81
*M2/2	*	*M2/2	*M2/2	*	*M2/2
*met(c|)	*	*met(c|)	*met(c|)	*	*met(c|)
0r	.	1ryy	2r	.	1ryy
.	.	.	2f/	E-	.
=82-	=82-	=82-	=82-	=82-	=82-
.	.	1ryy	4a\	-su-	1ryy
.	.	.	4a\	-ri-	.
.	.	.	2f/	-en-	.
=83-	=83-	=83-	=83-	=83-	=83-
2F/	E-	1ryy	4a\	-tes	1ryy
*	*	*	*custos:cc	*	*
!	!	!	!LO:SIC:v:l:t=custos ple	!	!
.	.	.	4a\	im-	.
!	!	!	!LO:PB:g=original	!	!
4A/	-su-	.	4cc\	-ple-	.
4A/	-ri-	.	4a\	-uit	.
=84-	=84-	=84-	=84-	=84-	=84-
2F/	-en-	1ryy	2cc\	bo-	1ryy
4A/	-tes	.	4a\	-nis	.
4A/	im-	.	4cc\	im-	.
=85-	=85-	=85-	=85-	=85-	=85-
4B-\	-ple-	1ryy	4dd\	-ple-	1ryy
4B-\	-uit	.	4dd\	-uit	.
2c\	bo-	.	2cc\	vo-	.
=86-	=86-	=86-	=86-	=86-	=86-
1F	-nis	1ryy	4cc,<\	-nis	1ryy
.	.	.	4cc\	et	.
.	.	.	4.a\	di-	.
.	.	.	8a\	-ui-	.
=87-	=87-	=87-	=87-	=87-	=87-
1r	.	1ryy	2.f/	-tes	1ryy
.	.	.	4f/	di-	.
=88-	=88-	=88-	=88-	=88-	=88-
2c\	et	1ryy	2e/	.	1ryy
4.F/	di-	.	4f/	.	.
.	.	.	4f/	-mi-	.
8F/	-ui-	.	.	.	.
=89-	=89-	=89-	=89-	=89-	=89-
*custos:G	*	*	*	*	*
2c\	-tes	1ryy	4.e/	-sit	1ryy
.	.	.	8f/	.	.
!LO:LB:g=original	!	!	!	!	!
4G/	di-	.	4g/	.	.
4G/	-mi-	.	4.g/	in-	.
=90-	=90-	=90-	=90-	=90-	=90-
4.A\	-sit	1ryy	.	.	1ryy
*	*	*	*custos:f	*	*
.	.	.	8f/	.	.
!	!	!	!LO:LB:g=original	!	!
.	.	.	2f/	-a-	.
8B-\	in-	.	.	.	.
2c\	-a-	.	.	.	.
.	.	.	4e/	.	.
=91-	=91-	=91-	=91-	=91-	=91-
2F/	-nes	1ryy	2f/	-nes	1ryy
2r	.	.	2r	.	.
=92-	=92-	=92-	=92-	=92-	=92-
*M3/1	*	*M3/1	*M3/1	*	*M3/1
0F	E-	0.ryy	1cc	e-	0.ryy
.	.	.	1a	-ia	.
1F	-ia	.	1cc	e-	.
=93-	=93-	=93-	=93-	=93-	=93-
0F	E-	0.ryy	1a	-ia	0.ryy
.	.	.	0cc	e-	.
1F	-ia	.	.	.	.
=94-	=94-	=94-	=94-	=94-	=94-
00.r	.	0.ryy	0a	-ia	0.ryy
.	.	.	1r	.	.
=95-	=95-	=95-	=95-	=95-	=95-
.	.	0.ryy	1.f	vir-	0.ryy
.	.	.	2e/	.	.
.	.	.	1d	-go	.
=96-	=96-	=96-	=96-	=96-	=96-
0.r	.	0.ryy	0f	de-	0.ryy
.	.	.	1e	-um	.
=97-	=97-	=97-	=97-	=97-	=97-
0F	Vir-	0.ryy	1.f	ge-	0.ryy
.	.	.	2f/	-nu-	.
1c	-go	.	1g	-it	.
=98-	=98-	=98-	=98-	=98-	=98-
0B-	De-	0.ryy	0b-	de-	0.ryy
1F	-um	.	1a	-um	.
=99-	=99-	=99-	=99-	=99-	=99-
1.c	ge-	0.ryy	1.g	ge-	0.ryy
*	*	*	*custos:a	*	*
2c\	-nu-	.	2g/	-nu-	.
!	!	!	!LO:LB:g=original	!	!
1F	-it	.	1a	-it	.
=100-	=100-	=100-	=100-	=100-	=100-
0F	E-	0.ryy	0.r	.	0.ryy
1F	-ia	.	.	.	.
=101-	=101-	=101-	=101-	=101-	=101-
1F	E-	0.ryy	1cc	e-	0.ryy
1F	-ia	.	1a	-ia	.
1C	E-	.	1cc	e-	.
=102-	=102-	=102-	=102-	=102-	=102-
0.Fl;;	-ia	0.ryy	0.al;;	-ia;	0.ryy
!LO:LB:g=original	!	!	!	!	!
=103-	=103-	=103-	=103-	=103-	=103-
*M2/2	*	*M2/2	*M2/2	*	*M2/2
*met(c|)	*	*met(c|)	*met(c|)	*	*met(c|)
0r	.	1ryy	0r	.	1ryy
=104-	=104-	=104-	=104-	=104-	=104-
.	.	1ryy	.	.	1ryy
=105-	=105-	=105-	=105-	=105-	=105-
2.F/	Si-	1ryy	4f/	Si-	1ryy
.	.	.	4g/	.	.
.	.	.	4a\	.	.
4G/	.	.	4b-\	.	.
=106-	=106-	=106-	=106-	=106-	=106-
2A/	-cut	1ryy	2cc\	cut	1ryy
2A/	lo-	.	2a\	lo-	.
=107-	=107-	=107-	=107-	=107-	=107-
2B-\	-cu-	1ryy	2dd\	-cu-	1ryy
2B-\	-tus	.	2dd\	-tus	.
=108-	=108-	=108-	=108-	=108-	=108-
2F/	eſt	1ryy	2cc\	eſt	1ryy
2c\	ad	.	4g/	ad	.
.	.	.	4a\	.	.
=109-	=109-	=109-	=109-	=109-	=109-
4G/	pa-	1ryy	4b-\	pa-	1ryy
4A/	.	.	4cc\	.	.
2B-\	.	.	2dd\	-tres	.
=110-	=110-	=110-	=110-	=110-	=110-
2c\	-tres	1ryy	2.ee\	no-	1ryy
2G/	no-	.	.	.	.
.	.	.	4dd\	.	.
=111-	=111-	=111-	=111-	=111-	=111-
2c\	-ſtros	1ryy	2cc\	-ſtros	1ryy
*	*	*	*custos:a	*	*
2.F/	A-	.	2.a\	a-	.
!	!	!	!LO:LB:g=original	!	!
=112-	=112-	=112-	=112-	=112-	=112-
.	.	1ryy	.	.	1ryy
4F/	-bra-	.	4a\	-bra-	.
2F/	-ham	.	2a,<\	-ham	.
=113-	=113-	=113-	=113-	=113-	=113-
2.B-\	A-	1ryy	2.b-\	a-	1ryy
4B-\	-bra-	.	4b-\	-bra-	.
=114-	=114-	=114-	=114-	=114-	=114-
2F/	-ham	1ryy	2a,<\	-ham	1ryy
!LO:TX:t=P:problem=brakujący fragment; partia urywa się [zgodnie z RISM "B part is not complet (lack of the last verse)"]	!	!	!	!	!
2F/	.	.	2a\	et	.
=115-	=115-	=115-	=115-	=115-	=115-
1ryy	.	1ryy	2.g/	se-	1ryy
.	.	.	4g/	-mi-	.
=116-	=116-	=116-	=116-	=116-	=116-
1ryy	.	1ryy	2f/	-ni	1ryy
.	.	.	2f/	e-	.
=117-	=117-	=117-	=117-	=117-	=117-
1ryy	.	1ryy	2e/	-ius	1ryy
.	.	.	2e/	in	.
=118-	=118-	=118-	=118-	=118-	=118-
1ryy	.	1ryy	4d/	se-	1ryy
.	.	.	4e/	.	.
.	.	.	4.f/	-cu-	.
.	.	.	8f/	.	.
=119-	=119-	=119-	=119-	=119-	=119-
1ryy	.	1ryy	2e,</	-la	1ryy
.	.	.	2e/	in	.
=120-	=120-	=120-	=120-	=120-	=120-
1ryy	.	1ryy	4d/	se-	1ryy
.	.	.	4e/	.	.
.	.	.	1f/	-cu-	.
=121-	=121-	=121-	=121-	=121-	=121-
1ryy	.	1ryy	.	.	1ryy
.	.	.	2e/	.	.
=122-	=122-	=122-	=122-	=122-	=122-
*M3/1	*	*M3/1	*M3/1	*	*M3/1
*	*	*	*custos:cc	*	*
0.ryy	.	0.ryy	0f	-la	0.ryy
!	!	!	!LO:LB:g=original	!	!
.	.	.	1cc	e-	.
=123-	=123-	=123-	=123-	=123-	=123-
0.ryy	.	0.ryy	0.a	-ia	0.ryy
=124-	=124-	=124-	=124-	=124-	=124-
0.ryy	.	0.ryy	0.r	.	0.ryy
=125-	=125-	=125-	=125-	=125-	=125-
0.ryy	.	0.ryy	1.f	vir-	0.ryy
.	.	.	2e/	.	.
.	.	.	1d	-go	.
=126-	=126-	=126-	=126-	=126-	=126-
0.ryy	.	0.ryy	0f	de-	0.ryy
.	.	.	1e	-um	.
=127-	=127-	=127-	=127-	=127-	=127-
0.ryy	.	0.ryy	1.f	vir-	0.ryy
.	.	.	2f/	.	.
.	.	.	1g	-go	.
=128-	=128-	=128-	=128-	=128-	=128-
0.ryy	.	0.ryy	0b-	de-	0.ryy
.	.	.	1a	-um	.
=129-	=129-	=129-	=129-	=129-	=129-
0.ryy	.	0.ryy	1.g	ge-	0.ryy
.	.	.	2g/	-nu-	.
.	.	.	1a	-it	.
=130-	=130-	=130-	=130-	=130-	=130-
0.ryy	.	0.ryy	0.r	.	0.ryy
=131-	=131-	=131-	=131-	=131-	=131-
0.ryy	.	0.ryy	1cc	e-	0.ryy
.	.	.	1a	-ia	.
.	.	.	1cc	e-	.
=132-	=132-	=132-	=132-	=132-	=132-
*	*	*	*custos:f	*	*
0.ryy	.	0.ryy	0.al;;	-ia;	0.ryy
!	!	!	!LO:LB:g=original	!	!
=133-	=133-	=133-	=133-	=133-	=133-
0.ryy	.	0.ryy	0f	Si-	0.ryy
.	.	.	1f	-cut	.
=134-	=134-	=134-	=134-	=134-	=134-
0.ryy	.	0.ryy	1.d	e-	0.ryy
.	.	.	2e/	.	.
.	.	.	1f	-rat	.
=135-	=135-	=135-	=135-	=135-	=135-
0.ryy	.	0.ryy	0e	in	0.ryy
.	.	.	1d	prin-	.
=136-	=136-	=136-	=136-	=136-	=136-
0.ryy	.	0.ryy	1.g	-ci-	0.ryy
.	.	.	2g/	-pi-	.
.	.	.	1g,<	-o	.
=137-	=137-	=137-	=137-	=137-	=137-
0.ryy	.	0.ryy	1f	et	0.ryy
.	.	.	1a	nunc	.
.	.	.	1g	et	.
=138-	=138-	=138-	=138-	=138-	=138-
0.ryy	.	0.ryy	0.g	sem-	0.ryy
=139-	=139-	=139-	=139-	=139-	=139-
0.ryy	.	0.ryy	0.g	-per	0.ryy
=140-	=140-	=140-	=140-	=140-	=140-
0.ryy	.	0.ryy	0f	et	0.ryy
.	.	.	1e	in	.
=141-	=141-	=141-	=141-	=141-	=141-
0.ryy	.	0.ryy	1.f	se-	0.ryy
.	.	.	2f/	-cu-	.
.	.	.	1f	-la	.
=142-	=142-	=142-	=142-	=142-	=142-
*	*	*	*custos:g	*	*
!	!	!	!LO:SIC:v:l:t=custos culo	!	!
0.ryy	.	0.ryy	0g	se-	0.ryy
!	!	!	!LO:PB:g=original	!	!
.	.	.	1g	-cu-	.
=143-	=143-	=143-	=143-	=143-	=143-
0.ryy	.	0.ryy	0f	-lo-	0.ryy
.	.	.	1f	-rum	.
=144-	=144-	=144-	=144-	=144-	=144-
0.ryy	.	0.ryy	0e	a-	0.ryy
.	.	.	1f,<	-men	.
=145-	=145-	=145-	=145-	=145-	=145-
0.ryy	.	0.ryy	0cc	se-	0.ryy
.	.	.	1b-	-cu-	.
=146-	=146-	=146-	=146-	=146-	=146-
0.ryy	.	0.ryy	0a	-lo-	0.ryy
.	.	.	1f	-rum	.
=147-	=147-	=147-	=147-	=147-	=147-
0.ryy	.	0.ryy	0cc	a-	0.ryy
.	.	.	1cc,<	-men	.
=148-	=148-	=148-	=148-	=148-	=148-
0.ryy	.	0.ryy	0b-	se-	0.ryy
.	.	.	1a	-cu-	.
=149-	=149-	=149-	=149-	=149-	=149-
0.ryy	.	0.ryy	0dd	-lo-	0.ryy
.	.	.	1cc	-rum	.
=150-	=150-	=150-	=150-	=150-	=150-
0.ryy	.	0.ryy	0a	a-	0.ryy
.	.	.	1a,<	-men	.
=151-	=151-	=151-	=151-	=151-	=151-
0.ryy	.	0.ryy	0a	se-	0.ryy
*	*	*	*custos:g	*	*
.	.	.	1d	-cu-	.
!	!	!	!LO:LB:g=original	!	!
=152-	=152-	=152-	=152-	=152-	=152-
0.ryy	.	0.ryy	0g	-lo-	0.ryy
.	.	.	1f	-rum	.
=153-	=153-	=153-	=153-	=153-	=153-
0.ryy	.	0.ryy	0g	a-	0.ryy
.	.	.	1a,<	-men	.
=154-	=154-	=154-	=154-	=154-	=154-
0.ryy	.	0.ryy	0cc	e-	0.ryy
.	.	.	1a	-ia	.
=155-	=155-	=155-	=155-	=155-	=155-
0.ryy	.	0.ryy	0cc	e-	0.ryy
.	.	.	1a	-ia	.
=156-	=156-	=156-	=156-	=156-	=156-
0.ryy	.	0.ryy	0cc	e-	0.ryy
.	.	.	1a	-ia	.
=157-	=157-	=157-	=157-	=157-	=157-
0.ryy	.	0.ryy	0f	vir-	0.ryy
.	.	.	1e	-go	.
=158-	=158-	=158-	=158-	=158-	=158-
0.ryy	.	0.ryy	0f	de-	0.ryy
.	.	.	1f	-um	.
=159-	=159-	=159-	=159-	=159-	=159-
0.ryy	.	0.ryy	1.f	ge-	0.ryy
.	.	.	2f/	-nu-	.
.	.	.	1e	-it	.
=160-	=160-	=160-	=160-	=160-	=160-
0.ryy	.	0.ryy	0.r	.	0.ryy
=161-	=161-	=161-	=161-	=161-	=161-
0.ryy	.	0.ryy	1cc	e-	0.ryy
.	.	.	1a	-ia	.
.	.	.	1cc	e-	.
=162-	=162-	=162-	=162-	=162-	=162-
*	*	*	*custos:b	*	*
0.ryy	.	0.ryy	1a	-ia	0.ryy
!	!	!	!LO:LB:g=original	!	!
.	.	.	0b-	e-	.
=163-	=163-	=163-	=163-	=163-	=163-
0.ryy	.	0.ryy	0a	-ia	0.ryy
.	.	.	1cc	e-	.
=164-	=164-	=164-	=164-	=164-	=164-
0.ryy	.	0.ryy	0dd	-ia	0.ryy
.	.	.	1dd	e-	.
=165-	=165-	=165-	=165-	=165-	=165-
0.ryy	.	0.ryy	0cc	-ia	0.ryy
.	.	.	1a	e-	.
=166-	=166-	=166-	=166-	=166-	=166-
0.ryy	.	0.ryy	0b-	-ia	0.ryy
.	.	.	1b-	e-	.
=167-	=167-	=167-	=167-	=167-	=167-
0.ryy	.	0.ryy	0.al;;	-ia;	0.ryy
==	==	==	==	==	==
*-	*-	*-	*-	*-	*-
!!!system-decoration: [(s1,s2)][(s3,s4)]
!!!RDF**kern: > = above
!!!RDF**kern: < = below
!!!RDF**kern: | = vertical stroke
!!!RDF**kern: N = linked
!!!RDF**kern: i = editorial accidental
!!!RDF**kern: l = terminal long
!!!ENC: Andrzej Kubiczek
!!!END: 2021-10-31
!!!EED: Wojciech Jakubiak-Danek
!!!EEV: 2021-11-03
!!!YEC: Copyright 2022 Narodowy Instytut Fryderyka Chopina (https://polishscores.org)
!!!YEM: License CC-BY-4.0 (https://creativecommons.org/licenses/by/4.0)
